Modules/BetterCms.Module.Root/Scss/base_64/icons/cp-seo-ok.svg

<svg xmlns="http://www.w3.org/2000/svg" width="21" height="35" viewBox="0 0 21 35">
 <g fill-rule="evenodd">
  <path fill="#12bc02" d="m10.51 35c-5.799 0-10.5-4.701-10.5-10.5 0-5.799 4.701-10.5 10.5-10.5 5.799 0 10.5 4.701 10.5 10.5 0 5.799-4.701 10.5-10.5 10.5m0-18.577c-4.461 0-8.077 3.616-8.077 8.077 0 4.461 3.616 8.077 8.077 8.077 4.461 0 8.077-3.616 8.077-8.077 0-4.461-3.616-8.077-8.077-8.077m-1.238 12.158c-.149.149-.391.149-.54 0l-.12-.12h-.001l-.127-.128-.562-.562c-.002-.002-.001-.005-.003-.007l-2.574-2.593c-.15-.149-.15-.391 0-.54l.809-.81c.15-.149.391-.149.541 0l2.31 2.327 4.856-4.856c.149-.15.391-.15.54 0l.81.809c.149.149.149.391 0 .54l-5.939 5.94"/>
  <path fill="#a0a0a0" d="m19 6v-5h1v5h-1m0 1h-4v-1h4v1m-5-1v-5h1v5h-1m1-6h4v1h-4v-1m-7 7v-1-2-1-2-1h1 3v1h-3v2h3v1h-3v2h3v1h-3-1m-7 0v-1h4v1h-4m4-2h1v1h-1v-1m-1-1h-1v-1h1 1v1 1h-1v-1m-2-2h1v1h-1v-1m-1-1h1v1h-1v-1m4-1v1h-3v-1h3"/>
 </g>
</svg>

<svg xmlns="http://www.w3.org/2000/svg" preserveAspectRatio="xMidYMid" width="21" height="35" viewBox="0 0 21 35">
    <path fill="#12bc02" fill-rule="evenodd" d="M10.510,35.000 C4.711,35.000 0.010,30.299 0.010,24.500 C0.010,18.701 4.711,14.000 10.510,14.000 C16.309,14.000 21.010,18.701 21.010,24.500 C21.010,30.299 16.309,35.000 10.510,35.000 ZM10.510,16.423 C6.049,16.423 2.433,20.039 2.433,24.500 C2.433,28.961 6.049,32.577 10.510,32.577 C14.971,32.577 18.587,28.961 18.587,24.500 C18.587,20.039 14.971,16.423 10.510,16.423 ZM9.272,28.581 C9.123,28.730 8.881,28.730 8.732,28.581 L8.612,28.461 L8.611,28.461 L8.484,28.333 L7.922,27.771 C7.920,27.769 7.921,27.766 7.919,27.764 L5.345,25.171 C5.195,25.022 5.195,24.780 5.345,24.631 L6.154,23.821 C6.304,23.672 6.545,23.672 6.695,23.821 L9.005,26.148 L13.861,21.292 C14.010,21.142 14.252,21.142 14.401,21.292 L15.211,22.101 C15.360,22.250 15.360,22.492 15.211,22.641 L9.272,28.581 Z"/>
    <path fill="#a0a0a0" fill-rule="evenodd" d="M19.000,6.000 L19.000,1.000 L20.000,1.000 L20.000,6.000 L19.000,6.000 ZM19.000,7.000 L15.000,7.000 L15.000,6.000 L19.000,6.000 L19.000,7.000 ZM14.000,6.000 L14.000,1.000 L15.000,1.000 L15.000,6.000 L14.000,6.000 ZM15.000,0.000 L19.000,0.000 L19.000,1.000 L15.000,1.000 L15.000,0.000 ZM8.000,7.000 L8.000,6.000 L8.000,4.000 L8.000,3.000 L8.000,1.000 L8.000,0.000 L9.000,0.000 L12.000,0.000 L12.000,1.000 L9.000,1.000 L9.000,3.000 L12.000,3.000 L12.000,4.000 L9.000,4.000 L9.000,6.000 L12.000,6.000 L12.000,7.000 L9.000,7.000 L8.000,7.000 ZM1.000,7.000 L1.000,6.000 L5.000,6.000 L5.000,7.000 L1.000,7.000 ZM5.000,5.000 L6.000,5.000 L6.000,6.000 L5.000,6.000 L5.000,5.000 ZM4.000,4.000 L3.000,4.000 L3.000,3.000 L4.000,3.000 L5.000,3.000 L5.000,4.000 L5.000,5.000 L4.000,5.000 L4.000,4.000 ZM2.000,2.000 L3.000,2.000 L3.000,3.000 L2.000,3.000 L2.000,2.000 ZM1.000,1.000 L2.000,1.000 L2.000,2.000 L1.000,2.000 L1.000,1.000 ZM5.000,0.000 L5.000,1.000 L2.000,1.000 L2.000,0.000 L5.000,0.000 Z"/>
</svg>
